assets/piped.svg

<?xml version="1.0" encoding="UTF-8" standalone="no"?>
<svg
   width="1080"
   height="1080"
   viewBox="0 0 1080 1080"
   version="1.1"
   id="svg10"
   sodipodi:docname="piped.svg"
   inkscape:version="1.3 (0e150ed6c4, 2023-07-21)"
   xmlns:inkscape="http://www.inkscape.org/namespaces/inkscape"
   xmlns:sodipodi="http://sodipodi.sourceforge.net/DTD/sodipodi-0.dtd"
   xmlns="http://www.w3.org/2000/svg"
   xmlns:svg="http://www.w3.org/2000/svg">
  <sodipodi:namedview
     id="namedview10"
     pagecolor="#ffffff"
     bordercolor="#666666"
     borderopacity="1.0"
     inkscape:showpageshadow="2"
     inkscape:pageopacity="0.0"
     inkscape:pagecheckerboard="0"
     inkscape:deskcolor="#d1d1d1"
     inkscape:zoom="0.38101852"
     inkscape:cx="726.99878"
     inkscape:cy="406.80437"
     inkscape:window-width="1515"
     inkscape:window-height="960"
     inkscape:window-x="0"
     inkscape:window-y="0"
     inkscape:window-maximized="1"
     inkscape:current-layer="svg10" />
  <defs
     id="defs10">
    <linearGradient
       id="grd1"
       x1="138.28"
       x2="522.49"
       y1="555.665"
       y2="480.982"
       gradientUnits="userSpaceOnUse">
      <stop
         offset=".16"
         stop-color="#8b1010"
         id="stop1" />
      <stop
         offset="1"
         stop-color="#f84330"
         id="stop2" />
    </linearGradient>
    <linearGradient
       id="grd2"
       x1="353.405"
       x2="321.475"
       y1="835.89"
       y2="986.11"
       gradientUnits="userSpaceOnUse">
      <stop
         offset=".174"
         stop-color="#493b32"
         id="stop3" />
      <stop
         offset=".61"
         stop-color="#dbccc4"
         id="stop4" />
    </linearGradient>
    <linearGradient
       id="grd3"
       x1="300.212"
       x2="861.409"
       y1="432.365"
       y2="323.279"
       gradientUnits="userSpaceOnUse">
      <stop
         offset=".16"
         stop-color="#8b1010"
         id="stop5" />
      <stop
         offset="1"
         stop-color="#f84330"
         id="stop6" />
    </linearGradient>
    <linearGradient
       id="grd4"
       x1="553.252"
       x2="504.217"
       y1="62.95"
       y2="372.542"
       gradientUnits="userSpaceOnUse">
      <stop
         offset=".174"
         stop-color="#493b32"
         id="stop7" />
      <stop
         offset=".61"
         stop-color="#dbccc4"
         id="stop8" />
    </linearGradient>
    <linearGradient
       id="grd5"
       x1="557.276"
       x2="503.26"
       y1="360.48"
       y2="701.52"
       gradientUnits="userSpaceOnUse">
      <stop
         offset=".174"
         stop-color="#493b32"
         id="stop9" />
      <stop
         offset=".61"
         stop-color="#dbccc4"
         id="stop10" />
    </linearGradient>
  </defs>
  <style
     id="style10">.shp0{fill:url(#grd1)}.shp1{fill:url(#grd2)}.shp2{fill:url(#grd3)}.shp3{fill:url(#grd4)}.shp4{fill:url(#grd5)}</style>
  <g
     id="Logo original"
     transform="matrix(1.3140738,0,0,1.3140738,-176.50623,-169.27255)">
    <path
       id="Vertical Pipe"
       d="m 308.43,156.83 c 0,0 7.31,-5.48 20.3,-12.73 7.3,-3.14 16.4,-6.37 26.78,-9.27 10.92,-2.28 23.06,-3.99 35.59,-4.91 12.81,-0.07 25.78,0.74 37.97,2.35 12.13,2.47 23.31,5.59 32.73,8.91 18.15,8.52 29.59,15.65 29.59,15.65 0,0 0,11.71 0,32.22 0,10.25 0,22.7 0,36.98 0,14.28 0,30.39 0,47.97 0,17.57 0,36.61 0,56.75 0,10.07 0,20.42 0,30.99 0,10.57 0,21.37 0,32.36 0,10.98 0,22.15 0,33.46 0,11.3 0,22.75 0,34.28 0,11.53 0,23.16 0,34.83 0,11.67 0,23.39 0,35.11 0,11.71 0,23.43 0,35.1 0,11.67 0,23.3 0,34.83 0,11.54 0,22.98 0,34.29 0,11.3 0,22.47 0,33.45 0,10.99 0,21.79 0,32.36 0,10.58 0,20.92 0,30.99 0,20.14 0,39.18 0,56.75 0,17.58 0,33.69 0,47.97 0,14.28 0,26.73 0,36.98 0,20.51 0,32.23 0,32.23 0,0 -11.44,0 -28.59,0 -8.58,0 -18.58,0 -29.3,0 -10.72,0 -22.16,0 -33.59,0 -11.44,0 -22.87,0 -33.59,0 -10.72,0 -20.73,0 -29.3,0 -17.16,0 -28.59,0 -28.59,0 0,0 0,-11.72 0,-32.23 0,-10.25 0,-22.7 0,-36.98 0,-14.28 0,-30.39 0,-47.97 0,-17.57 0,-36.61 0,-56.75 0,-10.07 0,-20.41 0,-30.99 0,-10.57 0,-21.37 0,-32.36 0,-10.98 0,-22.15 0,-33.45 0,-11.31 0,-22.75 0,-34.29 0,-11.53 0,-23.16 0,-34.83 0,-11.67 0,-23.39 0,-35.1 0,-11.72 0,-23.44 0,-35.11 0,-11.67 0,-23.3 0,-34.83 0,-11.53 0,-22.98 0,-34.28 0,-11.31 0,-22.48 0,-33.46 0,-10.99 0,-21.79 0,-32.36 0,-10.57 0,-20.92 0,-30.99 0,-20.14 0,-39.18 0,-56.75 0,-17.58 0,-33.69 0,-47.97 0,-14.28 0,-26.73 0,-36.98 0,-20.51 0,-32.22 0,-32.22 z"
       class="shp0"
       style="fill:url(#grd1)" />
    <path
       id="Vertical Pipe Hole"
       d="m 400,948 c -50.88,0 -92,-16.54 -92,-37 0,-20.46 41.12,-37 92,-37 50.88,0 92,16.54 92,37 0,20.46 -41.12,37 -92,37 z"
       class="shp1"
       style="fill:url(#grd2)" />
    <path
       id="Curved Pipe"
       d="m 550.11,292.48 c 0,0 0,-9.64 -0.16,-22.25 -0.14,-5.67 -0.33,-11.9 -0.55,-18.27 -0.22,-6.23 -0.43,-12.92 -0.6,-19.85 -0.09,-7.4 -0.08,-15.47 0.04,-23.83 0.26,-9.3 0.65,-18.99 1.12,-28.18 1.38,-21.19 2.68,-37.67 2.68,-37.67 0,0 14.59,-1.21 39.24,-1.44 5.94,0.38 12.43,0.98 19.38,1.85 6.95,0.87 14.36,2.01 22.15,3.46 7.51,1.94 15.32,4.3 23.37,7.09 8.04,2.79 16.32,6.02 24.75,9.69 7.97,4.32 16.01,9.16 24.06,14.51 8.04,5.35 16.08,11.21 24.06,17.58 7.5,6.87 14.87,14.25 22.05,22.13 6.82,8.18 13.42,16.83 19.73,25.92 5.92,9.37 11.52,19.14 16.76,29.28 4.8,10.36 9.22,21.04 13.21,31.99 3.52,11.11 6.6,22.44 9.2,33.92 2.11,11.57 3.73,23.25 4.85,34.96 0.6,11.72 0.69,23.42 0.27,35.04 -0.95,11.55 -2.41,22.97 -4.38,34.18 -2.49,11.08 -5.48,21.91 -8.94,32.43 -3.98,10.31 -8.42,20.28 -13.28,29.86 -5.36,9.31 -11.11,18.21 -17.21,26.64 -6.57,8.13 -13.46,15.79 -20.6,22.94 -7.79,6.68 -15.77,12.85 -23.88,18.51 -8.1,5.66 -16.32,10.81 -24.58,15.45 -8.95,4.01 -17.84,7.57 -26.56,10.69 -8.74,3.12 -17.31,5.8 -25.64,8.06 -8.79,1.77 -17.22,3.22 -25.17,4.38 -7.96,1.17 -15.45,2.05 -22.36,2.68 -14.55,0.41 -26.2,0.46 -34.21,0.41 -8.01,-0.05 -12.38,-0.2 -12.38,-0.2 0,0 0.32,-9.63 0.73,-23.13 0.17,-6.44 0.35,-13.81 0.5,-21.61 0.11,-7.83 0.17,-16.33 0.17,-25.12 -0.08,-9.21 -0.24,-18.99 -0.48,-28.78 -0.34,-10.52 -0.76,-21.1 -1.2,-30.82 -1.17,-21.47 -2.17,-37.48 -2.17,-37.48 0,0 6.94,0.4 18.59,0.49 5.58,-0.22 12.15,-0.74 19.38,-1.64 6.91,-1.22 14.33,-2.95 21.95,-5.26 7.13,-2.71 14.29,-6.08 21.23,-10.09 3.23,-2.16 6.37,-4.49 9.4,-6.97 2.84,-2.58 5.57,-5.32 8.14,-8.19 2.37,-2.96 4.58,-6.05 6.6,-9.26 1.82,-3.28 3.44,-6.67 4.86,-10.15 1.2,-3.52 2.18,-7.13 2.94,-10.78 0.54,-3.69 0.85,-7.41 0.93,-11.15 -0.14,-3.75 -0.52,-7.5 -1.12,-11.23 -0.83,-3.71 -1.88,-7.39 -3.14,-11 -1.49,-3.58 -3.18,-7.09 -5.07,-10.51 -2.1,-3.36 -4.38,-6.62 -6.83,-9.75 -2.66,-3.07 -5.46,-6 -8.39,-8.8 -3.12,-2.71 -6.35,-5.27 -9.67,-7.68 -7.14,-4.54 -14.52,-8.46 -21.85,-11.72 -7.86,-2.91 -15.5,-5.24 -22.64,-7.01 -7.47,-1.49 -14.25,-2.54 -20.02,-3.24 -12.06,-0.89 -19.26,-1.08 -19.26,-1.08 z"
       class="shp2"
       style="fill:url(#grd3)" />
    <path
       id="Curved Pipe Upper Hole"
       d="m 556.37,294 c -22.47,0 -40.64,-34.09 -40.64,-76.25 0,-42.17 18.17,-76.26 40.64,-76.26 22.47,0 40.64,34.09 40.64,76.26 0,42.16 -18.17,76.25 -40.64,76.25 z"
       class="shp3"
       style="fill:url(#grd4)" />
    <path
       id="Curved Pipe Bottom Hole"
       d="m 557.9,615 c -22.47,0 -40.64,-37.55 -40.64,-84 0,-46.45 18.17,-84 40.64,-84 22.48,0 40.64,37.55 40.64,84 0,46.45 -18.16,84 -40.64,84 z"
       class="shp4"
       style="fill:url(#grd5)" />
  </g>
</svg>

<svg xmlns="http://www.w3.org/2000/svg" width="1080" height="1080" viewBox="0 0 1080 1080"><defs><linearGradient id="grd1" x1="138.28" x2="522.49" y1="555.665" y2="480.982" gradientUnits="userSpaceOnUse"><stop offset=".16" stop-color="#8b1010"/><stop offset="1" stop-color="#f84330"/></linearGradient><linearGradient id="grd2" x1="353.405" x2="321.475" y1="835.89" y2="986.11" gradientUnits="userSpaceOnUse"><stop offset=".174" stop-color="#493b32"/><stop offset=".61" stop-color="#dbccc4"/></linearGradient><linearGradient id="grd3" x1="300.212" x2="861.409" y1="432.365" y2="323.279" gradientUnits="userSpaceOnUse"><stop offset=".16" stop-color="#8b1010"/><stop offset="1" stop-color="#f84330"/></linearGradient><linearGradient id="grd4" x1="553.252" x2="504.217" y1="62.95" y2="372.542" gradientUnits="userSpaceOnUse"><stop offset=".174" stop-color="#493b32"/><stop offset=".61" stop-color="#dbccc4"/></linearGradient><linearGradient id="grd5" x1="557.276" x2="503.26" y1="360.48" y2="701.52" gradientUnits="userSpaceOnUse"><stop offset=".174" stop-color="#493b32"/><stop offset=".61" stop-color="#dbccc4"/></linearGradient></defs><style>.shp0{fill:url(#grd1)}.shp1{fill:url(#grd2)}.shp2{fill:url(#grd3)}.shp3{fill:url(#grd4)}.shp4{fill:url(#grd5)}</style><g id="Logo original"><path id="Vertical Pipe" d="M308.43 156.83C308.43 156.83 315.74 151.35 328.73 144.1C336.03 140.96 345.13 137.73 355.51 134.83C366.43 132.55 378.57 130.84 391.1 129.92C403.91 129.85 416.88 130.66 429.07 132.27C441.2 134.74 452.38 137.86 461.8 141.18C479.95 149.7 491.39 156.83 491.39 156.83C491.39 156.83 491.39 168.54 491.39 189.05C491.39 199.3 491.39 211.75 491.39 226.03C491.39 240.31 491.39 256.42 491.39 274C491.39 291.57 491.39 310.61 491.39 330.75C491.39 340.82 491.39 351.17 491.39 361.74C491.39 372.31 491.39 383.11 491.39 394.1C491.39 405.08 491.39 416.25 491.39 427.56C491.39 438.86 491.39 450.31 491.39 461.84C491.39 473.37 491.39 485 491.39 496.67C491.39 508.34 491.39 520.06 491.39 531.78C491.39 543.49 491.39 555.21 491.39 566.88C491.39 578.55 491.39 590.18 491.39 601.71C491.39 613.25 491.39 624.69 491.39 636C491.39 647.3 491.39 658.47 491.39 669.45C491.39 680.44 491.39 691.24 491.39 701.81C491.39 712.39 491.39 722.73 491.39 732.8C491.39 752.94 491.39 771.98 491.39 789.55C491.39 807.13 491.39 823.24 491.39 837.52C491.39 851.8 491.39 864.25 491.39 874.5C491.39 895.01 491.39 906.73 491.39 906.73C491.39 906.73 479.95 906.73 462.8 906.73C454.22 906.73 444.22 906.73 433.5 906.73C422.78 906.73 411.34 906.73 399.91 906.73C388.47 906.73 377.04 906.73 366.32 906.73C355.6 906.73 345.59 906.73 337.02 906.73C319.86 906.73 308.43 906.73 308.43 906.73C308.43 906.73 308.43 895.01 308.43 874.5C308.43 864.25 308.43 851.8 308.43 837.52C308.43 823.24 308.43 807.13 308.43 789.55C308.43 771.98 308.43 752.94 308.43 732.8C308.43 722.73 308.43 712.39 308.43 701.81C308.43 691.24 308.43 680.44 308.43 669.45C308.43 658.47 308.43 647.3 308.43 636C308.43 624.69 308.43 613.25 308.43 601.71C308.43 590.18 308.43 578.55 308.43 566.88C308.43 555.21 308.43 543.49 308.43 531.78C308.43 520.06 308.43 508.34 308.43 496.67C308.43 485 308.43 473.37 308.43 461.84C308.43 450.31 308.43 438.86 308.43 427.56C308.43 416.25 308.43 405.08 308.43 394.1C308.43 383.11 308.43 372.31 308.43 361.74C308.43 351.17 308.43 340.82 308.43 330.75C308.43 310.61 308.43 291.57 308.43 274C308.43 256.42 308.43 240.31 308.43 226.03C308.43 211.75 308.43 199.3 308.43 189.05C308.43 168.54 308.43 156.83 308.43 156.83Z" class="shp0"/><path id="Vertical Pipe Hole" d="M400 948C349.12 948 308 931.46 308 911C308 890.54 349.12 874 400 874C450.88 874 492 890.54 492 911C492 931.46 450.88 948 400 948Z" class="shp1"/><path id="Curved Pipe" d="M550.11 292.48C550.11 292.48 550.11 282.84 549.95 270.23C549.81 264.56 549.62 258.33 549.4 251.96C549.18 245.73 548.97 239.04 548.8 232.11C548.71 224.71 548.72 216.64 548.84 208.28C549.1 198.98 549.49 189.29 549.96 180.1C551.34 158.91 552.64 142.43 552.64 142.43C552.64 142.43 567.23 141.22 591.88 140.99C597.82 141.37 604.31 141.97 611.26 142.84C618.21 143.71 625.62 144.85 633.41 146.3C640.92 148.24 648.73 150.6 656.78 153.39C664.82 156.18 673.1 159.41 681.53 163.08C689.5 167.4 697.54 172.24 705.59 177.59C713.63 182.94 721.67 188.8 729.65 195.17C737.15 202.04 744.52 209.42 751.7 217.3C758.52 225.48 765.12 234.13 771.43 243.22C777.35 252.59 782.95 262.36 788.19 272.5C792.99 282.86 797.41 293.54 801.4 304.49C804.92 315.6 808 326.93 810.6 338.41C812.71 349.98 814.33 361.66 815.45 373.37C816.05 385.09 816.14 396.79 815.72 408.41C814.77 419.96 813.31 431.38 811.34 442.59C808.85 453.67 805.86 464.5 802.4 475.02C798.42 485.33 793.98 495.3 789.12 504.88C783.76 514.19 778.01 523.09 771.91 531.52C765.34 539.65 758.45 547.31 751.31 554.46C743.52 561.14 735.54 567.31 727.43 572.97C719.33 578.63 711.11 583.78 702.85 588.42C693.9 592.43 685.01 595.99 676.29 599.11C667.55 602.23 658.98 604.91 650.65 607.17C641.86 608.94 633.43 610.39 625.48 611.55C617.52 612.72 610.03 613.6 603.12 614.23C588.57 614.64 576.92 614.69 568.91 614.64C560.9 614.59 556.53 614.44 556.53 614.44C556.53 614.44 556.85 604.81 557.26 591.31C557.43 584.87 557.61 577.5 557.76 569.7C557.87 561.87 557.93 553.37 557.93 544.58C557.85 535.37 557.69 525.59 557.45 515.8C557.11 505.28 556.69 494.7 556.25 484.98C555.08 463.51 554.08 447.5 554.08 447.5C554.08 447.5 561.02 447.9 572.67 447.99C578.25 447.77 584.82 447.25 592.05 446.35C598.96 445.13 606.38 443.4 614 441.09C621.13 438.38 628.29 435.01 635.23 431C638.46 428.84 641.6 426.51 644.63 424.03C647.47 421.45 650.2 418.71 652.77 415.84C655.14 412.88 657.35 409.79 659.37 406.58C661.19 403.3 662.81 399.91 664.23 396.43C665.43 392.91 666.41 389.3 667.17 385.65C667.71 381.96 668.02 378.24 668.1 374.5C667.96 370.75 667.58 367 666.98 363.27C666.15 359.56 665.1 355.88 663.84 352.27C662.35 348.69 660.66 345.18 658.77 341.76C656.67 338.4 654.39 335.14 651.94 332.01C649.28 328.94 646.48 326.01 643.55 323.21C640.43 320.5 637.2 317.94 633.88 315.53C626.74 310.99 619.36 307.07 612.03 303.81C604.17 300.9 596.53 298.57 589.39 296.8C581.92 295.31 575.14 294.26 569.37 293.56C557.31 292.67 550.11 292.48 550.11 292.48Z" class="shp2"/><path id="Curved Pipe Upper Hole" d="M556.37 294C533.9 294 515.73 259.91 515.73 217.75C515.73 175.58 533.9 141.49 556.37 141.49C578.84 141.49 597.01 175.58 597.01 217.75C597.01 259.91 578.84 294 556.37 294Z" class="shp3"/><path id="Curved Pipe Bottom Hole" d="M557.9 615C535.43 615 517.26 577.45 517.26 531C517.26 484.55 535.43 447 557.9 447C580.38 447 598.54 484.55 598.54 531C598.54 577.45 580.38 615 557.9 615Z" class="shp4"/></g></svg>
